img/icon-closed.svg

<svg fill="none" height="32" viewBox="0 0 32 32" width="32" xmlns="http://www.w3.org/2000/svg"><path clip-rule="evenodd" d="m21.4142 14.5858c.7811.781.7811 2.0474 0 2.8284l-8 8c-.781.7811-2.0474.7811-2.8284 0-.78106-.781-.78106-2.0474 0-2.8284l6.5858-6.5858-6.5858-6.58579c-.78106-.78104-.78106-2.04737 0-2.82842.781-.78105 2.0474-.78105 2.8284 0z" fill="#fff" fill-rule="evenodd"/></svg>

<svg width="32" height="32" viewBox="0 0 32 32" fill="none" xmlns="http://www.w3.org/2000/svg">
<path fill-rule="evenodd" clip-rule="evenodd" d="M21.4142 14.5858C22.1953 15.3668 22.1953 16.6332 21.4142 17.4142L13.4142 25.4142C12.6332 26.1953 11.3668 26.1953 10.5858 25.4142C9.80474 24.6332 9.80474 23.3668 10.5858 22.5858L17.1716 16L10.5858 9.41421C9.80474 8.63317 9.80474 7.36684 10.5858 6.58579C11.3668 5.80474 12.6332 5.80474 13.4142 6.58579L21.4142 14.5858Z" fill="white"/>
</svg>
